X:1
T:She Wore a Yellow Ribbon
M:4/4
L:1/4
K:C
 E| G2 z E| G2 z E| G3/2 A/2 G F| E G2 G,| C3/2 C/2 C D| E G2 E| D3/2 E/2 D C|\
 D3| E| G2 z E| G2 z E| G3/2 A/2 G F| E G2 E| C C C D| E G G3/2 F/2|\
 E2 D3/2 D/2| C3||
